X: 33867
T: Red And The Gold, The
R: reel
M: 4/4
K: Eminor
|:EFGB A2GF|GAGF DEFA|EEGA BBAG|AGFG d3D|
EFGB A2GF|GAGF DEFA|EEGA BBAG|AGFG d3A:|
|:BBAG FBEF|BAGF DEFA|ABAG FBEF|BAGF E2E2|
ABAG FBEF|BAGF DEFc|zBAG FBEF|BAGF E4:|

